src/svg/featured/wordpress.svg

<svg fill="none" height="49" viewBox="0 0 215 49" width="215" xmlns="http://www.w3.org/2000/svg"><g fill="#fff"><path d="m38.5168 23.3347c0-2.586-.9288-4.3769-1.7255-5.7708-.082-.1333-.1637-.265-.2445-.3954-.9639-1.5554-1.8104-2.9212-1.8104-4.5114 0-1.9234 1.4588-3.71389 3.5137-3.71389.0598 0 .1177.0048.1755.0096.0318.00264.0636.00528.0956.00712-3.7227-3.41054-8.6824-5.49285-14.1299-5.49285-7.31 0-13.7412 3.75055-17.48264 9.43132.49092.0147.95357.0251 1.34654.0251 2.1886 0 5.5765-.2656 5.5765-.2656 1.1279-.0665 1.2609 1.5902.1341 1.7236 0 0-1.1335.1334-2.3948.1995l7.6197 22.6646 4.5791-13.7334-3.26-8.932c-1.1268-.0661-2.1942-.1995-2.1942-.1995-1.1275-.0661-.9954-1.7901.1322-1.7236 0 0 3.4555.2656 5.5116.2656 2.1882 0 5.5764-.2656 5.5764-.2656 1.1288-.0665 1.2614 1.5902.1342 1.7236 0 0-1.1359.1334-2.3949.1995l7.5617 22.493 2.0871-6.9744.1648-.5266c.8221-2.6229 1.4281-4.5568 1.4281-6.2375z"/><path d="m15.2598 43.2222c-6.97951-3.3919-11.79272-10.5494-11.79272-18.8316 0-3.0335.65057-5.9133 1.81157-8.5156z"/><path d="m18.4805 44.4636 6.2779-18.2428 6.4325 17.6209c.0418.1035.0928.1987.1489.2882-2.175.7649-4.5118 1.1861-6.9484 1.1861-2.0541 0-4.0365-.3014-5.9109-.8524z"/><path d="m42.7516 14.3517c.0899.6665.1409 1.3819.1409 2.1515 0 2.1234-.3966 4.5103-1.591 7.4948l-6.3915 18.4792c6.2207-3.6275 10.4048-10.3669 10.4048-18.0862.0004-3.6379-.9288-7.0588-2.5632-10.0393z"/><path clip-rule="evenodd" d="m0 24.3906c0-13.4491 10.9423-24.3906 24.3914-24.3906 13.4486 0 24.3921 10.9415 24.3925 24.3906 0 13.4506-10.9439 24.3917-24.3925 24.3917-13.4491 0-24.3914-10.9411-24.3914-24.3917zm1.1184 0c0 12.8331 10.4406 23.2737 23.273 23.2737 12.8319 0 23.2717-10.4406 23.2717-23.2737 0-12.8324-10.4398-23.2722-23.2717-23.2722-12.8328 0-23.273 10.4398-23.273 23.2722z" fill-rule="evenodd"/><path clip-rule="evenodd" d="m146.066 34.9459v-.9456c-3.168 0-3.735-.8035-3.735-5.5327v-2.316h2.695c4.87 0 7.565-2.553 7.565-5.8154 0-3.3576-2.695-5.8635-7.565-5.8635h-9.787v.946c3.168 0 3.735.7561 3.735 5.4849v7.5644c0 4.7288-.567 5.5323-3.735 5.5323v.9456zm-3.735-18.7711h2.695c2.648 0 3.877 1.892 3.877 4.1614 0 2.2221-1.229 4.0659-3.877 4.0659h-2.695z" fill-rule="evenodd"/><path d="m75.4777 19.012-3.2624 9.6459-4.6806-14.1848h-.8986l-4.7754 14.1848-3.1677-9.6459c-.9934-2.9312-.2365-3.5929 2.5533-3.5929v-.946h-10.4963v.946c2.7424 0 3.4989.7091 4.6336 4.1606l5.248 16.17h.6147l4.9168-14.7991 4.8231 14.7991h.6144l5.3905-16.17c1.1821-3.4515 1.8912-4.1606 4.8698-4.1606v-.946h-8.8887v.946c3.0259 0 3.4515.8034 2.5055 3.5929z"/><g clip-rule="evenodd" fill-rule="evenodd"><path d="m116.233 19.2015h8.463c6.761 0 9.693 3.5459 9.693 7.8483 0 4.3032-2.932 7.8961-9.693 7.8961h-13.759l-5.248-6.5715h-.804v1.7017c0 3.3568.426 3.9715 3.073 3.9715v.8983h-9.4084v-.8983c2.6474 0 3.0734-.6147 3.0734-3.9715v-6.0522c0-3.3572-.426-3.9246-3.0734-3.9246v-.8978h8.3214c4.161 0 6.383 1.9859 6.383 4.5859 0 2.0807-1.56 3.9241-4.491 4.4449l2.174 2.3638c1.891 2.0803 3.263 3.1681 5.296 3.4515 2.647 0 3.072-.6147 3.072-3.9715v-6.0522c0-3.3572-.425-3.9246-3.072-3.9246zm-11.347 1.4186v6.2875l1.938.0004c2.127 0 3.073-1.4651 3.073-3.1202 0-1.7021-.946-3.1677-3.073-3.1677zm19.621 12.8602h.331c4.917 0 5.815-3.5937 5.815-6.4775 0-2.7898-.898-6.3827-5.815-6.3827h-2.269v10.2599c0 2.175.236 2.6003 1.938 2.6003z"/><path d="m88.2901 35.5602c-5.2006 0-9.456-3.8294-9.456-8.5108 0-4.6332 4.2558-8.4634 9.456-8.4634 5.2011 0 9.4561 3.8302 9.4561 8.4634 0 4.6814-4.255 8.5108-9.4561 8.5108zm0-15.5075c-4.3493 0-5.8627 3.9238-5.8627 6.9971 0 3.1211 1.5134 6.9979 5.8627 6.9979 4.3976 0 5.9106-3.8768 5.9106-6.9979 0-3.0733-1.513-6.9971-5.9106-6.9971z"/><path d="m185.072 30.5021-.236.8505c-.425 1.5603-.946 2.1277-4.303 2.1277h-.662c-2.458 0-2.884-.5674-2.884-3.9242v-2.1747c3.688 0 3.972.3305 3.972 2.7895h.898v-7.0453h-.898c0 2.4586-.284 2.7895-3.972 2.7895v-5.295h2.6c3.358 0 3.877.5673 4.303 2.1277l.237.8978h.756l-.331-4.4441h-13.901v.8978c2.648 0 3.074.5674 3.074 3.9246v6.0522c0 3.0709-.362 3.8445-2.449 3.9548-1.984-.303-3.346-1.3851-5.21-3.4348l-2.175-2.3638c2.931-.5208 4.492-2.3642 4.492-4.4449 0-2.6-2.222-4.5859-6.383-4.5859h-8.321v.8978c2.647 0 3.073.5674 3.073 3.9246v6.0522c0 3.3568-.425 3.9715-3.073 3.9715v.8983h9.409v-.8983c-2.647 0-3.073-.6147-3.073-3.9715v-1.7017h.803l5.248 6.5715h19.432l.284-4.4438zm-25.058-3.5945v-6.2875h1.938c2.128 0 3.074 1.4656 3.074 3.1677 0 1.6551-.946 3.1202-3.074 3.1202z"/></g><path d="m190.415 33.9525c.709.6151 2.364 1.6077 4.255 1.6077 3.168 0 5.768-2.0799 5.768-5.0581 0-1.4182-.898-3.1684-3.168-4.2558l-2.599-1.2764c-2.27-1.0404-3.263-1.7021-3.263-2.9312 0-1.1825 1.23-1.939 2.553-1.939 2.506 0 3.735 1.8438 4.066 4.0663h.993v-5.5796h-.898c-.142.5677-.379 1.0881-.615 1.2772-.804-.6617-2.127-1.2291-3.688-1.2291-2.931 0-5.059 1.9382-5.059 4.2077 0 2.0799 1.418 3.6402 3.31 4.5393l2.695 1.2764c1.938.8982 3.026 1.8442 3.026 3.0733 0 1.4182-1.23 2.2691-2.743 2.2691-2.789 0-4.964-1.8439-5.342-4.9641h-.946v6.524h.899c.094-.6617.519-1.3708.756-1.6077z"/><path d="m209.232 35.5602c-1.891 0-3.546-.9926-4.255-1.6077-.236.2369-.662.946-.756 1.6077h-.899v-6.524h.946c.378 3.1202 2.553 4.9641 5.343 4.9641 1.513 0 2.742-.8509 2.742-2.2691 0-1.2291-1.087-2.1751-3.026-3.0733l-2.695-1.2764c-1.891-.8991-3.31-2.4594-3.31-4.5393 0-2.2695 2.128-4.2077 5.059-4.2077 1.561 0 2.884.5674 3.688 1.2291.236-.1891.473-.7095.614-1.2772h.899v5.5796h-.993c-.331-2.2225-1.56-4.0663-4.066-4.0663-1.324 0-2.553.7565-2.553 1.939 0 1.2291.993 1.8908 3.262 2.9312l2.6 1.2764c2.27 1.0874 3.168 2.8376 3.168 4.2558 0 2.9782-2.6 5.0581-5.768 5.0581z"/></g></svg>

<svg width="215" height="49" viewBox="0 0 215 49" fill="none" xmlns="http://www.w3.org/2000/svg">
<path d="M38.5168 23.3347C38.5168 20.7487 37.588 18.9578 36.7913 17.5639C36.7093 17.4306 36.6276 17.2989 36.5468 17.1685C35.5829 15.6131 34.7364 14.2473 34.7364 12.6571C34.7364 10.7337 36.1952 8.94321 38.2501 8.94321C38.3099 8.94321 38.3678 8.94801 38.4256 8.95281C38.4574 8.95545 38.4892 8.95809 38.5212 8.95993C34.7985 5.54939 29.8388 3.46708 24.3913 3.46708C17.0813 3.46708 10.6501 7.21763 6.90866 12.8984C7.39958 12.9131 7.86223 12.9235 8.2552 12.9235C10.4438 12.9235 13.8317 12.6579 13.8317 12.6579C14.9596 12.5914 15.0926 14.2481 13.9658 14.3815C13.9658 14.3815 12.8323 14.5149 11.571 14.581L19.1907 37.2456L23.7698 23.5122L20.5098 14.5802C19.383 14.5141 18.3156 14.3807 18.3156 14.3807C17.1881 14.3146 17.3202 12.5906 18.4478 12.6571C18.4478 12.6571 21.9033 12.9227 23.9594 12.9227C26.1476 12.9227 29.5358 12.6571 29.5358 12.6571C30.6646 12.5906 30.7972 14.2473 29.67 14.3807C29.67 14.3807 28.5341 14.5141 27.2751 14.5802L34.8368 37.0732L36.9239 30.0988L37.0887 29.5722C37.9108 26.9493 38.5168 25.0154 38.5168 23.3347Z" fill="white"/>
<path d="M15.2598 43.2222C8.28029 39.8303 3.46708 32.6728 3.46708 24.3906C3.46708 21.3571 4.11765 18.4773 5.27865 15.875L15.2598 43.2222Z" fill="white"/>
<path d="M18.4805 44.4636L24.7584 26.2208L31.1909 43.8417C31.2327 43.9452 31.2837 44.0404 31.3398 44.1299C29.1648 44.8948 26.828 45.316 24.3914 45.316C22.3373 45.316 20.3549 45.0146 18.4805 44.4636Z" fill="white"/>
<path d="M42.7516 14.3517C42.8415 15.0182 42.8925 15.7336 42.8925 16.5032C42.8925 18.6266 42.4959 21.0135 41.3015 23.998L34.91 42.4772C41.1307 38.8497 45.3148 32.1103 45.3148 24.391C45.3152 20.7531 44.386 17.3322 42.7516 14.3517Z" fill="white"/>
<path fill-rule="evenodd" clip-rule="evenodd" d="M0 24.3906C0 10.9415 10.9423 0 24.3914 0C37.84 0 48.7835 10.9415 48.7839 24.3906C48.7839 37.8412 37.84 48.7823 24.3914 48.7823C10.9423 48.7823 0 37.8412 0 24.3906ZM1.1184 24.3906C1.1184 37.2237 11.559 47.6643 24.3914 47.6643C37.2233 47.6643 47.6631 37.2237 47.6631 24.3906C47.6631 11.5582 37.2233 1.1184 24.3914 1.1184C11.5586 1.1184 1.1184 11.5582 1.1184 24.3906Z" fill="white"/>
<path fill-rule="evenodd" clip-rule="evenodd" d="M146.066 34.9459V34.0003C142.898 34.0003 142.331 33.1968 142.331 28.4676V26.1516H145.026C149.896 26.1516 152.591 23.5986 152.591 20.3362C152.591 16.9786 149.896 14.4727 145.026 14.4727H135.239V15.4187C138.407 15.4187 138.974 16.1748 138.974 20.9036V28.468C138.974 33.1968 138.407 34.0003 135.239 34.0003V34.9459H146.066ZM142.331 16.1748H145.026C147.674 16.1748 148.903 18.0668 148.903 20.3362C148.903 22.5583 147.674 24.4021 145.026 24.4021H142.331V16.1748Z" fill="white"/>
<path d="M75.4777 19.012L72.2153 28.6579L67.5347 14.4731H66.6361L61.8607 28.6579L58.693 19.012C57.6996 16.0808 58.4565 15.4191 61.2463 15.4191V14.4731H50.75V15.4191C53.4924 15.4191 54.2489 16.1282 55.3836 19.5797L60.6316 35.7497H61.2463L66.1631 20.9506L70.9862 35.7497H71.6006L76.9911 19.5797C78.1732 16.1282 78.8823 15.4191 81.8609 15.4191V14.4731H72.9722V15.4191C75.9981 15.4191 76.4237 16.2225 75.4777 19.012Z" fill="white"/>
<path fill-rule="evenodd" clip-rule="evenodd" d="M116.233 19.2015H124.696C131.457 19.2015 134.389 22.7474 134.389 27.0498C134.389 31.353 131.457 34.9459 124.696 34.9459H110.937L105.689 28.3744H104.885V30.0761C104.885 33.4329 105.311 34.0476 107.958 34.0476V34.9459H98.5496V34.0476C101.197 34.0476 101.623 33.4329 101.623 30.0761V24.0239C101.623 20.6667 101.197 20.0993 98.5496 20.0993V19.2015H106.871C111.032 19.2015 113.254 21.1874 113.254 23.7874C113.254 25.8681 111.694 27.7115 108.763 28.2323L110.937 30.5961C112.828 32.6764 114.2 33.7642 116.233 34.0476C118.88 34.0476 119.305 33.4329 119.305 30.0761V24.0239C119.305 20.6667 118.88 20.0993 116.233 20.0993V19.2015ZM104.886 20.6201V26.9076L106.824 26.908C108.951 26.908 109.897 25.4429 109.897 23.7878C109.897 22.0857 108.951 20.6201 106.824 20.6201H104.886ZM124.507 33.4803H124.838C129.755 33.4803 130.653 29.8866 130.653 27.0028C130.653 24.213 129.755 20.6201 124.838 20.6201H122.569V30.88C122.569 33.055 122.805 33.4803 124.507 33.4803Z" fill="white"/>
<path fill-rule="evenodd" clip-rule="evenodd" d="M88.2901 35.5602C83.0895 35.5602 78.8341 31.7308 78.8341 27.0494C78.8341 22.4162 83.0899 18.586 88.2901 18.586C93.4912 18.586 97.7462 22.4162 97.7462 27.0494C97.7462 31.7308 93.4912 35.5602 88.2901 35.5602ZM88.2901 20.0527C83.9408 20.0527 82.4274 23.9765 82.4274 27.0498C82.4274 30.1709 83.9408 34.0477 88.2901 34.0477C92.6877 34.0477 94.2007 30.1709 94.2007 27.0498C94.2007 23.9765 92.6877 20.0527 88.2901 20.0527Z" fill="white"/>
<path fill-rule="evenodd" clip-rule="evenodd" d="M185.072 30.5021L184.836 31.3526C184.411 32.9129 183.89 33.4803 180.533 33.4803H179.871C177.413 33.4803 176.987 32.9129 176.987 29.5561V27.3814C180.675 27.3814 180.959 27.7119 180.959 30.1709H181.857V23.1256H180.959C180.959 25.5842 180.675 25.9151 176.987 25.9151V20.6201H179.587C182.945 20.6201 183.464 21.1874 183.89 22.7478L184.127 23.6456H184.883L184.552 19.2015H170.651V20.0993C173.299 20.0993 173.725 20.6667 173.725 24.0239V30.0761C173.725 33.147 173.363 33.9206 171.276 34.0309C169.292 33.7279 167.93 32.6458 166.066 30.5961L163.891 28.2323C166.822 27.7115 168.383 25.8681 168.383 23.7874C168.383 21.1874 166.161 19.2015 162 19.2015H153.679V20.0993C156.326 20.0993 156.752 20.6667 156.752 24.0239V30.0761C156.752 33.4329 156.327 34.0476 153.679 34.0476V34.9459H163.088V34.0476C160.441 34.0476 160.015 33.4329 160.015 30.0761V28.3744H160.818L166.066 34.9459H185.498L185.782 30.5021H185.072ZM160.014 26.9076V20.6201H161.952C164.08 20.6201 165.026 22.0857 165.026 23.7878C165.026 25.4429 164.08 26.908 161.952 26.908L160.014 26.9076Z" fill="white"/>
<path d="M190.415 33.9525C191.124 34.5676 192.779 35.5602 194.67 35.5602C197.838 35.5602 200.438 33.4803 200.438 30.5021C200.438 29.0839 199.54 27.3337 197.27 26.2463L194.671 24.9699C192.401 23.9295 191.408 23.2678 191.408 22.0387C191.408 20.8562 192.638 20.0997 193.961 20.0997C196.467 20.0997 197.696 21.9435 198.027 24.166H199.02V18.5864H198.122C197.98 19.1541 197.743 19.6745 197.507 19.8636C196.703 19.2019 195.38 18.6345 193.819 18.6345C190.888 18.6345 188.76 20.5727 188.76 22.8422C188.76 24.9221 190.178 26.4824 192.07 27.3815L194.765 28.6579C196.703 29.5561 197.791 30.5021 197.791 31.7312C197.791 33.1494 196.561 34.0003 195.048 34.0003C192.259 34.0003 190.084 32.1564 189.706 29.0362H188.76V35.5602H189.659C189.753 34.8985 190.178 34.1894 190.415 33.9525Z" fill="white"/>
<path d="M209.232 35.5602C207.341 35.5602 205.686 34.5676 204.977 33.9525C204.741 34.1894 204.315 34.8985 204.221 35.5602H203.322V29.0362H204.268C204.646 32.1564 206.821 34.0003 209.611 34.0003C211.124 34.0003 212.353 33.1494 212.353 31.7312C212.353 30.5021 211.266 29.5561 209.327 28.6579L206.632 27.3815C204.741 26.4824 203.322 24.9221 203.322 22.8422C203.322 20.5727 205.45 18.6345 208.381 18.6345C209.942 18.6345 211.265 19.2019 212.069 19.8636C212.305 19.6745 212.542 19.1541 212.683 18.5864H213.582V24.166H212.589C212.258 21.9435 211.029 20.0997 208.523 20.0997C207.199 20.0997 205.97 20.8562 205.97 22.0387C205.97 23.2678 206.963 23.9295 209.232 24.9699L211.832 26.2463C214.102 27.3337 215 29.0839 215 30.5021C215 33.4803 212.4 35.5602 209.232 35.5602Z" fill="white"/>
</svg>
